!!!COM: Bach, Johann Sebastian
!!!OTA: Das wohltemperirte Clavier
!!!OPR: Das wohltemperierte Klavier
!!!OTL: Fuga 9, Vol. 1
!!!XEN: The Well-Tempered Clavier, Volume 1, Fugue 9.
!!!ONB: E major, 3-part
!!!SCT: BWV 854b
!!!YEC: Copyright 1994, David Huron
!!!YEM: Rights to all derivative electronic formats reserved.
**kern	**kern	**kern
*staff2	*staff1	*staff1
*clefF4	*clefG2	*clefG2
*k[f#c#g#d#]	*k[f#c#g#d#]	*k[f#c#g#d#]
*M4/4	*M4/4	*M4/4
*E:	*E:	*E:
*MM104	*MM104	*MM104
=1	=1	=1
1r	4r	1r
.	8r	.
.	8e	.
.	4f#	.
.	16r	.
.	16B	.
.	16c#	.
.	16d#	.
=2	=2	=2
1r	16e	4r
.	16d#	.
.	16e	.
.	16f#	.
.	16g#	8r
.	16a	.
.	16b	8b
.	16g#	.
.	16e	4cc#
.	16d#	.
.	16e	.
.	16f#	.
.	16e	16r
.	16d#	16f#
.	16e	16g#
.	16f#	16a#
=3	=3	=3
2r	16d#	16b
.	16c#	16a#
.	16d#	16b
.	16e	16cc#
.	16f#	16dd#
.	16g#	16ee
.	16an	16ff#
.	16f#	16dd#
4r	8g#	16b
.	.	16an
.	8B	16b
.	.	16cc#
8r	[4e	16b
.	.	16a
8E	.	16b
.	.	16cc#
=4	=4	=4
4F#	8e]	16a
.	.	16g#
.	8d#	16a
.	.	16b
16r	[4f#	16a
16BB	.	16g#
16C#	.	16a
16D#	.	16b
16E	8f#]	16g#
16D#	.	16f#
16E	8B	16g#
16F#	.	16a#
16G#	8e	[4b
16An	.	.
16B	8d#	.
16G#	.	.
=5	=5	=5
16E	2c#	4b]
16D#	.	.
16E	.	.
16F#	.	.
16E	.	4a#
16D#	.	.
16E	.	.
16F#	.	.
16D#	8B	8b
16C#	.	.
16D#	8r	8bb
16E	.	.
16F#	4r	8dd#
16G#	.	.
16A	.	8ff#
16F#	.	.
=6	=6	=6
16G#	8r	[2b
16F#	.	.
16G#	8ee	.
16A	.	.
16B	8g#	.
16c#	.	.
16dn	8b	.
16B	.	.
16c#	8e	8b]
16B	.	.
16c#	4f#	8a
16d#	.	.
16e	.	8g#
16d#	.	.
16c#	8e	8ee
16B	.	.
=7	=7	=7
16A	4e	4ff#
16G#	.	.
16A	.	.
16B	.	.
16A	8d#	16r
16G#	.	16b
16A	8f#	16cc#
16B	.	16dd#
8G#	4B	16ee
.	.	16dd#
8F#	.	16ee
.	.	16ff#
8E	8r	16gg#
.	.	16aa
8D#	8b	16bb
.	.	16gg#
=8	=8	=8
8C#	4cc#	16ee
.	.	16dd#
8B	.	16ee
.	.	16ff#
8A#	16r	16ee
.	16f#	16dd#
8F#	16g#	16ee
.	16a#	16ff#
8B	16b	16dd#
.	16a#	16cc#
8r	16b	16dd#
.	16cc#	16ee
4r	16dd#	16ff#
.	16ee	16gg#
.	16ff#	[8aan
.	16dd#	.
=9	=9	=9
2r	16b	8aa]
.	16an	.
.	16b	8dd#
.	16cc#	.
.	16b	[4gg#
.	16a	.
.	16b	.
.	16cc#	.
4r	16a	8gg#]
.	16g#	.
.	16a	16ff#
.	16b	16ee
8r	16a	4dd#
.	16g#	.
8B	16a	.
.	16b	.
=10	=10	=10
4c#	8g#	16ee
.	.	16dd#
.	8e	16ee
.	.	16ff#
16r	[2a	16ee
16F#	.	16dd#
16G#	.	16ee
16A	.	16ff#
16B	.	16dd#
16A	.	16cc#
16B	.	16dd#
16c#	.	16ee
16d#	16a]	[4ff#
16e	16b#	.
16d#	16cc#	.
16c#	16dd#	.
=11	=11	=11
16B#	4.g#	8ff#]
16G#	.	.
16A#	.	16ee
16B#	.	16dd#
16c#	.	[4ee
16d#	.	.
16e	8cc#	.
16c#	.	.
16An	[2f#	8ee]
16G#	.	.
16A	.	8ee
16Bn	.	.
16A	.	8dd#
16G#	.	.
16A	.	8cc#
16B	.	.
=12	=12	=12
16G#	4f#]	8b#
16E	.	.
16F#	.	8g#
16G#	.	.
16A	8e	[4cc#
16B	.	.
16c#	8a	.
16A	.	.
16F#	8d#	8cc#]
16E	.	.
16F#	8f#	8dd#
16G#	.	.
16F#	8B#	8g#
16E	.	.
16F#	8d#	16a#
16G#	.	16b#
=13	=13	=13
8E	8G#	16cc#
.	.	16b#
8D#	8r	16cc#
.	.	16dd#
8C#	4r	16ee
.	.	16ff#
8E	.	16gg#
.	.	16ee
8AA#	4r	16cc#
.	.	16bn
8G#	.	16cc#
.	.	16dd#
8F##	[4A#	16cc#
.	.	16b
8D#	.	16cc#
.	.	16dd#
=14	=14	=14
8GG#	4A#]	16b
.	.	16a#
8AA#	.	16b
.	.	16cc#
8BB	4G#	16dd#
.	.	16ee
8AA#	.	16ff#
.	.	16dd#
8GG#	4r	16b
.	.	16an
8F#	.	16b
.	.	16cc#
8E#	[4G#	16b
.	.	16a
8C#	.	16b
.	.	16cc#
=15	=15	=15
8FF#	4G#]	16a
.	.	16g#
8GG#	.	16a
.	.	16b
8AA	4F#	16cc#
.	.	16dd#
8GG#	.	16ee
.	.	16cc#
8FF#	4r	16dd#
.	.	16cc#
8E	.	16dd#
.	.	16ee
8D#	[4F#	16ff#
.	.	16gg#
8C#	.	16aa
.	.	16ff#
=16	=16	=16
8BB#	4F#]	16gg#
.	.	16ff#
8GG#	.	16ee
.	.	16dd#
8AA	8E	16cc#
.	.	16b
8E	8c#	16a
.	.	16g#
16F#	4d#	16f#
16E	.	16g#
8F#	.	16a
.	.	16f#
8G#	16r	8d#
.	16G#	.
8GG#	16A#	8g#
.	16B#	.
=17	=17	=17
8C#	16c#	8e
.	16B#	.
8r	16c#	8g#
.	16d#	.
4r	16e	8cc#
.	16f#	.
.	16g#	8bn
.	16e	.
2r	16c#	16ee
.	16Bn	16dd#
.	16c#	16cc#
.	16d#	16b
.	16c#	[4a
.	16B	.
.	16c#	.
.	16d#	.
=18	=18	=18
1r	16B	8a]
.	16G#	.
.	16A	8d#
.	16B	.
.	16c#	8a
.	16d#	.
.	16e	8g#
.	16c#	.
.	16A	16cc#
.	16G#	16b
.	16A	16a
.	16B	16g#
.	16A	[4f#
.	16G#	.
.	16A	.
.	16B	.
=19	=19	=19
4r	16G#	8f#]
.	16F#	.
.	16G#	16e
.	16A	16d#
8r	8G#	16e
.	.	16f#
8E	[8B	16g#
.	.	16e
4F#	8B]	16c#
.	.	16g#
.	16A	16f#
.	16G#	16e
16r	16A	8d#
16BB	16c#	.
16C#	16B	8r
16D#	16A	.
=20	=20	=20
16E	8G#	16r
16D#	.	16B
16E	8r	16c#
16F#	.	16d#
16G#	4r	16e
16A	.	16f#
16B	.	16g#
16G#	.	16e
16E	2r	4cc#
16D#	.	.
16E	.	.
16F#	.	.
16E	.	16r
16D#	.	16f#
16E	.	16g#
16F#	.	16a#
=21	=21	=21
8D#	4r	16b
.	.	16a#
8F#	.	16b
.	.	16cc#
8BB	8r	16dd#
.	.	16ee
[8E	8e	16ff#
.	.	16gg#
8E]	4f#	16an
.	.	16g#
16D#	.	16a
16C#	.	16b
8D#	16r	16a
.	16B	16g#
8B	16c#	16a
.	16d#	16b
=22	=22	=22
4c#	16e	16g#
.	16d#	16f#
.	16e	16g#
.	16f#	16a
8r	16g#	16b
.	16a	16cc#
8G#	16b	[8ddn
.	16g#	.
8A	16e	8dd]
.	16d#	.
8G#	16e	16cc#
.	16f#	16b
8A	16e	[4cc#
.	16d#	.
8E	16e	.
.	16f#	.
=23	=23	=23
8F#	16d#	4cc#]
.	16c#	.
8D#	16d#	.
.	16e	.
8G#	16f#	4b
.	16g#	.
8F#	16a	.
.	16f#	.
8E	16dn	4r
.	16c#	.
8F#	16d	.
.	16e	.
8G#	16d	[4b
.	16c#	.
8E	16d	.
.	16e	.
=24	=24	=24
8A	16c#	4b]
.	16B	.
8B	16c#	.
.	16dn	.
8c#	16e	4a
.	16f#	.
8B	16g#	.
.	16e	.
8A	16c#	4r
.	16B	.
8G#	16c#	.
.	16d	.
8F#	16c#	[4a
.	16B	.
8E	16c#	.
.	16d	.
=25	=25	=25
8D#	16B	4a]
.	16A	.
8BB	16B	.
.	16c#	.
2E	16B	8g#
.	16A	.
.	16B	8ee
.	16c#	.
.	16A	4ff#
.	16G#	.
.	16A	.
.	16B	.
[4D#	16A	16r
.	16G#	16b
.	16A	16cc#
.	16B	16dd#
=26	=26	=26
4D#]	8G#	16ee
.	.	16dd#
.	8B	16ee
.	.	16ff#
4C#	8E	16gg#
.	.	16aa
.	[8G#	16bb
.	.	16gg#
8.FF#	8G#]	16aa
.	.	16gg#
.	[8F#	16aa
16E	.	16bb
8D#	4F#_	16aa
.	.	16gg#
8BB	.	16aa
.	.	16bb
=27	=27	=27
8E	4F#]	16gg#
.	.	16ff#
8BB	.	16gg#
.	.	16aa
8C#	[4E	16gg#
.	.	16ff#
8GG#	.	16ee
.	.	16dd#
8.AA	8E]	16cc#
.	.	16b
.	8e	16cc#
16EE	.	16ddn
8FF#	[4a	16cc#
.	.	16b
8CC#	.	16cc#
.	.	16dd
=28	=28	=28
8DD#	4a]	16b
.	.	16cc#
8B	.	16dd#
.	.	16b
4c#	16g#	2ee
.	16e	.
.	16f#	.
.	16g#	.
16r	16a	.
16F#	16b	.
16G#	[8cc#	.
16A	.	.
8B	16cc#]	4dd#
.	16cc#	.
8BB	16b	.
.	16a	.
=29	=29	=29
1EE;	1g#;	1ee;
==	==	==
*-	*-	*-
!!!CDT: 1685/3/-1750/7/28
!!!OCY: Deutschland
!!!PPP: Coethen; Cothen; Co2then
!!!ODT: <1722//
!!!PDT: 1722
!!!AFR: fuga; fugue
!!!AST: polyphony
!!!AMT: simple quadruple
!!!SCA: Bach-Werke-Verzeichnis
!!!YOR: Bach Gesellschaft
!!!SMS: British Library, various
!!!AIN: cemba; clavi
!!!EEV: 1.0
!!!RDT: 1986 November 18
!!!YER: 1994 August 10
!!!EFL: 9/48
!!!VTS: 2882643497
